X:1
T:정주나요
T:정주나요
T:글리 정말 10조! (알토 Pt)
L:1/8
Q:3/8=66
M:6/8
K:F
V:1 treble-8 nm="Classical Guitar" snm="Guit."
V:1
 EEE E z2 | EEF F z2 | FFF F z2 | (D2 F2 G2) | EEE E z z | EEF F z z | FFF F z z | (D2 F2 G2) | %8
w: 슈 비 루 밥|슈 비 루 밥|슈 비 루 밥|워 어 어|슈 비 루 밥|슈 비 루 밥|슈 비 루 밥|워 어 어|
 EEE E z2 | EEF F z2 | FFF F z2 | (D2 F2 G2) | EEE E z z | EEF F z z | FFF F z z | (D3 ^C3) | (F6 | %17
w: 슈 비 루 밥|슈 비 루 밥|슈 비 루 밥|워 어 어|슈 비 루 밥|슈 비 루 밥|슈 비 루 밥|아- *|아-|
 F6) | (_E6 | E6) | (D6 | F3 E3) | (D6 | F6- | F3) z z2 | z6 ||[K:Ab][M:4/4][Q:1/4=138] z8 | %27
w: |아-|||흠 *||흠||||
 c2 cc BAAF | A2 A2 B2 AB | c2 cc ecBA | A2 c2 B2 z2 | c2 c2 c2 c2 | B2 A2 B2 c2 | A8 | %34
w: |||||||
 z FFF (3F2 F2 F2 | F4 F4- | F4 z4 || E2 E2 E E2 F- | F F2 F A2 G2 | E2 E2 E E2 F- | F F2 A A2 G2 | %41
w: |||정 주 나 요 안-|* 정 주 나 요|늘 정 주 는 날-|* 알 아 줘 *|
 E2 E2 E E2 F- | F F2 F G2 G2 | F8- | F4 G2 G2 ||[K:F] z8 | z8 | z8 | z8 | z8 | z8 | z8 | z8 | z8 | %54
w: 정 주 나 요 안-|* 정 주 나 요|아|* 후 후||||||||||
 z8 | z8 | z8 | z8 | z8 | z8 | z8 || c3 _A F_E z F | _A2 AA F_E z2 | _A2 AA G_EEE | .F2 F2 G4 | %65
w: |||||||오 my ba be *|해 치 지 않 아|겁 내 지 말 고 내 게|다 가 와|
 F3 F F F2 F | F2 FF F F2 F | z8 | B2 _A2 G2 F2 | c2 cc B_AAF | _A2 A2 B2 AB | c2 cc ccB_A | %72
w: 이 래 뵈 도 나|귀 여 운 남 자 야||예 예 예 예|한 떨 기 장 미 같 은|그 대 여 내 게|한 뿌 리 산 삼 같 은|
 _A2 c2 B2 z2 | _A2 A2 A2 G2 | F2 F2 G2 G2 | _A8 | z FFF (3F2 F2 F2 | F4 F4- | F4 z4 ||[K:F] z8 | %80
w: 그 대 여|내 마 음 을|받 아 준 다|면|후 회 하 진 않 을|거 야|||
 z8 | z8 | z8 | z8 | z8 | z8 | z8 | c3 _A F_E z F | _A2 AA F_E z2 | _A2 AA G_EEE | .F2 F2 G4 | %91
w: |||||||오 my ba be 널|놓 치 지 않 아|널 위 해 목 숨 바 칠|한 남 자|
 F3 F F F2 F | F2 FF F F2 F | z8 | B2 _A2 G2 F2 | c2 cc B_AAF | _A2 A2 B2 AB | c2 cc ccB_A | %98
w: 이 래 뵈 도 나|뜨 거 운 남 자 야||요 용 용 용|한 여 름 빙 수 같 은|그 대 여 내 게|한 겨 울 호 빵 같 은|
 _A2 c2 B2 z2 | _A2 A2 A2 G2 | F2 F2 G2 G2 | _A8 | z FFF (3F2 F2 F2 | F4 F4- |[K:Ab] F4 z4 | %105
w: 그 대 여|내 마 음 을|받 아 준 다|면|후 회 하 진 않 을|거 야||
 E2 E2 E E2 F- | F F2 F A2 G2 | E2 E2 E E2 F- | F F2 A A2 G2 | E2 E2 E E2 F- | F F2 F G2 G2 | F8- | %112
w: 정 주 나 요 안-|* 정 주 나 요|늘 정 주 는 날-|* 알 아 줘 *|정 주 나 요 안-|* 정 주 나 요|아-|
 F4 z2 z2 ||[K:Bb] F2 F2 F F2 F- | F F2 G A2 G2 | F2 F2 F F2 F- | F B2 A G2 z2 | F2 F2 F F2 F- | %118
w: |정 주 나 요 안-|* 정 주 나 요|늘 정 주 는 날-|* 알 아 줘|정 주 나 요 안-|
 F F2 G A2 G2 | F8- | F4 z4 ||[K:C] E2 E2 E E2 F- | F E2 F G2 F2 | E2 E2 E E2 F- | F A2 G F2 z2 | %125
w: * 정 주 나 요|아-||정 주 나 요 안-|* 정 주 나 요|늘 정 주 는 날-|* 알 아 줘|
 E2 E2 E E2 F- | F F2 F G2 F2 | A8- | A4 z2 z2 ||[K:D] F2 F2 F F2 F- | F F2 G A2 G2 | %131
w: 정 주 나 요 안-|* 정 주 나 요|아-||정 주 나 요 안-|* 정 주 나 요|
 F2 F2 F F2 F- | F B2 A G2 z2 | F2 F2 F F2 F- | F F2 G A2 G2 | B8 | B4 B4 | A8- | A8- | A8 | z8 |] %141
w: 늘 정 주 는 날-|* 알 아 줘|정 주 나 요 안-|* 정 주 나 요|날|알 아|줘||||

